Cropped/OmaSp.svg

<?xml version="1.0" encoding="UTF-8"?>
<svg width="79px" height="32px" viewBox="0 0 79 32" version="1.1" xmlns="http://www.w3.org/2000/svg" xmlns:xlink="http://www.w3.org/1999/xlink">
    <!-- Generator: Sketch 52.3 (67297) - http://www.bohemiancoding.com/sketch -->
    <title>Cropped/OmaSp</title>
    <desc>Created with Sketch.</desc>
    <g id="Page-1" stroke="none" stroke-width="1" fill="none" fill-rule="evenodd">
        <g id="Optical/OmaSp" transform="translate(0.000000, -10.000000)">
            <g id="Cropped/OmaSp" transform="translate(0.000000, 10.000000)">
                <path d="M30.1491136,10.9106849 L30.1403601,10.9106849 C27.8360111,10.9106849 26.2603878,12.2564384 26.2603878,14.5052055 L26.2603878,22.4854795 L24.2558449,22.4854795 L24.2558449,14.009863 C24.2558449,12.0241096 23.1463435,10.9128767 21.3081163,10.9128767 C18.9140443,10.9128767 17.4850416,12.460274 17.4850416,14.3605479 L17.4850416,22.4854795 L15.4717452,22.4854795 L15.4717452,9.59780822 L17.4544044,9.59780822 L17.4544044,11.4389041 C18.4479224,9.86082192 19.8484765,9.24712329 21.5400831,9.24712329 C23.6715512,9.24712329 25.2756233,10.4175342 25.8883657,11.9364384 C26.6477285,10.3868493 28.0198338,9.24712329 30.3832687,9.24712329 C33.4163435,9.24712329 35.0795014,11.0882192 35.0795014,13.9221918 L35.0795014,22.4832877 L33.066205,22.4832877 L33.066205,14.0076712 C33.066205,12.0219178 31.958892,10.9106849 30.1491136,10.9106849 Z M70.2990582,6.76164384 C70.2990582,6.49863014 70.2399723,6.14794521 70.2115235,5.88493151 C69.6556787,3.08164384 67.8174515,1.82356164 65.5415512,1.82356164 C62.9461496,1.82356164 60.9613019,3.69315068 60.9613019,6.76164384 C60.9613019,10.4131507 63.4407202,11.9627397 63.4407202,16.1994521 C63.4407202,19.8531507 60.6396122,22.8339726 56.8471745,22.8339726 C52.9650139,22.8339726 50.2229917,19.7961644 50.2229917,16.0547945 C50.2229917,12.0547945 53.1772853,9.74246575 55.8230194,9.42027397 C56.0856233,9.38958904 56.407313,9.36109589 56.610831,9.36109589 L56.610831,11.0553425 C56.3865884,11.0607859 56.1629208,11.080552 55.9411911,11.1145205 C53.9847922,11.4345205 52.2340997,13.2778082 52.2340997,16.0526027 C52.2340997,18.8273973 54.0438781,21.1660274 56.8734349,21.1660274 C59.6176454,21.1660274 61.368338,19.0334247 61.368338,16.2279452 C61.368338,12.370411 58.8889197,10.88 58.8889197,6.75945205 C58.8889197,2.96109589 61.8366482,0.155616438 65.5131025,0.155616438 C68.664349,0.155616438 71.5245429,2.11506849 72.1657341,5.62191781 C72.2353171,5.99762507 72.2646615,6.37969794 72.2532687,6.76164384 L70.2990582,6.76164384 Z M72.2532687,9.24493151 L72.2598338,9.24931507 C74.0091953,9.23864385 75.6895838,9.93189991 76.9239149,11.1735144 C78.1582459,12.4151288 78.8431494,14.1011217 78.8249307,15.8531507 C78.8249307,19.769863 76.2864266,22.8383562 72.0847645,22.8383562 C71.3516669,22.8264805 70.6241479,22.7083603 69.9248476,22.4876712 L69.9248476,20.7627397 C70.6090256,21.0466455 71.3443138,21.1861728 72.0847645,21.1726027 C75.0609418,21.1726027 76.7831856,18.8646575 76.7831856,15.8531507 C76.7831856,13.1068493 74.9143213,10.9150685 72.0847645,10.9150685 C69.633795,10.9150685 67.6204986,12.64 67.6204986,15.5616438 L67.6204986,30.4657534 L65.6006371,30.4657534 L65.6006371,9.59561644 L67.6139335,9.59561644 L67.6139335,12.0219178 C68.6359003,10.2684932 70.2399723,9.24493151 72.2532687,9.24493151 Z M42.7825485,9.24493151 C45.9622438,9.24493151 47.9470914,10.969863 47.9470914,13.6284932 L47.9470914,22.4832877 L45.9622438,22.4832877 L45.9622438,20.7013699 C45.0868975,22.1917808 43.539723,22.8339726 41.8765651,22.8339726 C39.1914404,22.8339726 37.2372299,21.1967123 37.2372299,18.8887671 C37.2372299,16.5216438 39.0470083,15.090411 41.6730471,15.090411 L44.6798615,15.090411 C45.5836565,15.090411 45.933795,14.6520548 45.933795,13.9506849 L45.933795,13.6 C45.933795,11.6405479 44.5047922,10.9106849 42.7825485,10.9106849 C41.325097,10.9106849 40.1871468,11.3205479 39.7779224,12.4887671 L37.764626,12.4887671 C38.2022992,10.4438356 40.1849584,9.24493151 42.7825485,9.24493151 Z M45.933795,17.8082192 L45.9316066,16.1117808 C45.6121053,16.4931507 44.9709141,16.6093151 44.2990859,16.6093151 L41.9640997,16.6093151 C40.0667867,16.6093151 39.2789751,17.5452055 39.2789751,18.8887671 C39.2789751,20 40.038338,21.2273973 42.1982548,21.2273973 C44.1240166,21.2273973 45.933795,20.1446575 45.933795,17.8082192 Z M6.78393352,9.24493151 C10.4822715,9.24493151 13.4081163,12.0810959 13.4081163,16.0547945 C13.4081163,20.0284932 10.4669529,22.8339726 6.78393352,22.8339726 C3.10091413,22.8339726 0.190387812,20.0306849 0.190387812,16.0547945 C0.190387812,12.0789041 3.10747922,9.24493151 6.78393352,9.24493151 Z M6.78393352,21.1682192 C9.54783934,21.1682192 11.3576177,18.9786301 11.3576177,16.0547945 C11.3576177,13.1309589 9.53470914,10.9106849 6.78393352,10.9106849 C4.03315789,10.9106849 2.23213296,13.1331507 2.23213296,16.0547945 C2.23213296,18.9764384 4.04191136,21.1682192 6.78393352,21.1682192 Z" id="Combined-Shape" fill="#1DCA7A"></path>
                <path d="M0.750609418,30.4482192 L0.750609418,25.3150685 L1.40711911,25.3150685 L1.40711911,29.8871233 L3.91717452,29.8871233 L3.91717452,30.4482192 L0.750609418,30.4482192 Z M6.70952909,27.9978082 C6.70952909,27.52 6.35282548,27.2920548 5.85168975,27.2920548 C5.47865873,27.3014493 5.12079356,27.4418707 4.84066482,27.6887671 L4.50146814,27.2109589 C4.89312847,26.8816071 5.39071692,26.705622 5.90202216,26.7156164 C6.82551247,26.7156164 7.35072022,27.2438356 7.35072022,28.0043836 L7.35072022,30.4460274 L6.70952909,30.4460274 L6.70952909,30.0273973 C6.49069252,30.3912329 6.00487535,30.5380822 5.61534626,30.5380822 C4.81440443,30.5380822 4.30232687,30.060274 4.30232687,29.3786301 C4.30232687,28.6969863 4.78814404,28.2827397 5.58252078,28.2827397 L6.43160665,28.2827397 C6.63293629,28.2827397 6.69858726,28.1775342 6.69858726,28.0241096 L6.70952909,27.9978082 Z M5.27614958,25.2405479 C5.53356374,25.2463437 5.74086144,25.4539649 5.7466482,25.7117808 C5.73959277,25.9676141 5.53167164,26.1719853 5.27614958,26.1742466 C5.02212471,26.1718687 4.81677865,25.9662021 4.81440443,25.7117808 C4.81552106,25.4553885 5.02022284,25.2464806 5.27614958,25.2405479 Z M6.70952909,29.1090411 L6.70952909,28.7123288 C6.59310158,28.7982199 6.44811628,28.8358964 6.30468144,28.8175342 L5.73789474,28.8175342 C5.23457064,28.8175342 4.98509695,29.0191781 4.98509695,29.3852055 C4.98509695,29.6942466 5.21925208,29.9945205 5.72257618,29.9945205 C6.22590028,29.9945205 6.70952909,29.7424658 6.70952909,29.1024658 L6.70952909,29.1090411 Z M6.613241,25.2339726 C6.87065515,25.2397684 7.07795285,25.4473896 7.08373961,25.7052055 C7.07668418,25.9610387 6.86876306,26.16541 6.613241,26.1676712 C6.35921612,26.1652933 6.15387006,25.9596268 6.15149584,25.7052055 C6.15261247,25.4488131 6.35731425,25.2399052 6.613241,25.2339726 Z M8.94385042,30.4482192 L8.30484765,30.4482192 L8.30484765,25.3150685 L8.94385042,25.3150685 L8.94385042,27.3073973 C9.24666677,26.9285294 9.7066951,26.7102812 10.1912188,26.7156164 C11.0490582,26.7156164 11.5283102,27.2591781 11.5283102,28.070137 L11.5283102,30.4460274 L10.8871191,30.4460274 L10.8871191,28.1117808 C10.9100632,27.8875422 10.8333758,27.6645452 10.6774257,27.5020195 C10.5214755,27.3394938 10.3020477,27.2538901 10.0774238,27.2679452 C9.71196676,27.2679452 9.31587258,27.4717808 8.94385042,27.9013699 L8.94385042,30.4482192 Z M12.9288643,28.8241096 C13.0098338,29.4816438 13.43,29.9747945 14.1040166,29.9747945 C14.4800029,29.991664 14.8401588,29.8219626 15.0668975,29.5210959 L15.8284488,29.5210959 C15.4893055,30.1617112 14.8190912,30.5566699 14.0952632,30.5424658 C13.0339058,30.5424658 12.257036,29.740274 12.257036,28.6290411 C12.257036,27.5178082 13.0273407,26.7156164 14.0865097,26.7156164 C15.0253186,26.7156164 15.9072299,27.3249315 15.9072299,28.8 L15.9072299,28.8241096 L12.9288643,28.8241096 Z M12.9441828,28.2958904 L15.1631856,28.2958904 C15.128436,27.7261529 14.6564189,27.2822256 14.0865097,27.2832877 C13.454072,27.2832877 13.0579778,27.7041096 12.9441828,28.2958904 Z M16.6447091,25.3150685 L17.2837119,25.3150685 L17.2837119,30.4460274 L16.6447091,30.4460274 L16.6447091,25.3150685 Z M18.2619114,25.3150685 L18.9009141,25.3150685 L18.9009141,30.4460274 L18.2619114,30.4460274 L18.2619114,25.3150685 Z M22.0280886,27.9978082 C22.0280886,27.52 21.671385,27.2920548 21.1702493,27.2920548 C20.7971808,27.3012633 20.4392545,27.4417087 20.1592244,27.6887671 L19.8200277,27.2109589 C20.2115878,26.8814313 20.7092443,26.7054221 21.2205817,26.7156164 C22.144072,26.7156164 22.6692798,27.2438356 22.6692798,28.0043836 L22.6692798,30.4460274 L22.030277,30.4460274 L22.030277,30.0273973 C21.8114404,30.3912329 21.3256233,30.5380822 20.9360942,30.5380822 C20.1351524,30.5380822 19.6230748,30.060274 19.6230748,29.3786301 C19.6230748,28.6969863 20.108892,28.2827397 20.9032687,28.2827397 L21.7523546,28.2827397 C21.9558726,28.2827397 22.0193352,28.1775342 22.0193352,28.0241096 L22.0280886,27.9978082 Z M20.5947091,25.2405479 C20.8521233,25.2463437 21.059421,25.4539649 21.0652078,25.7117808 C21.0592844,25.968107 20.850702,26.1731282 20.5947091,26.1742466 C20.3406843,26.1718687 20.1353382,25.9662021 20.132964,25.7117808 C20.1340806,25.4553885 20.3387824,25.2464806 20.5947091,25.2405479 Z M22.0280886,29.1090411 L22.0280886,28.7123288 C21.911563,28.7980132 21.7666613,28.835668 21.623241,28.8175342 L21.0564543,28.8175342 C20.5553186,28.8175342 20.3036565,29.0191781 20.3036565,29.3852055 C20.3036565,29.6942466 20.5378116,29.9945205 21.0411357,29.9945205 C21.5444598,29.9945205 22.030277,29.7424658 22.030277,29.1024658 L22.0280886,29.1090411 Z M21.9318006,25.2339726 C22.1892147,25.2397684 22.3965124,25.4473896 22.4022992,25.7052055 C22.3952437,25.9610387 22.1873226,26.16541 21.9318006,26.1676712 C21.6777757,26.1652933 21.4724296,25.9596268 21.4700554,25.7052055 C21.471172,25.4488131 21.6758738,25.2399052 21.9318006,25.2339726 Z M25.5010249,27.340274 L24.9254848,27.340274 L24.9254848,26.8120548 L26.1400277,26.8120548 L26.1400277,31.110137 C26.1400277,31.7917808 25.6126316,31.8728767 25.2252909,31.8728767 L24.7635457,31.8728767 L24.7635457,31.3424658 L25.1114958,31.3424658 C25.3303324,31.3424658 25.4988366,31.3030137 25.4988366,31.0268493 L25.5010249,27.340274 Z M25.7680055,25.2405479 C26.0446386,25.241737 26.2689371,25.4654088 26.2713296,25.7424658 C26.2701739,25.8750029 26.2164948,26.0016514 26.1221021,26.0945472 C26.0277094,26.187443 25.9003361,26.2389759 25.7680055,26.2378082 C25.6364792,26.2389897 25.5099966,26.1871815 25.4169897,26.0940294 C25.3239827,26.0008773 25.2722552,25.8741974 25.2734349,25.7424658 C25.2722695,25.6101326 25.3237912,25.4827871 25.4166046,25.3885948 C25.509418,25.2944026 25.6358747,25.2411258 25.7680055,25.2405479 Z M29.2431302,27.9978082 C29.2431302,27.52 28.8864266,27.2920548 28.3852909,27.2920548 C28.0122598,27.3014493 27.6543947,27.4418707 27.3742659,27.6887671 L27.0328809,27.2109589 C27.424441,26.8814313 27.9220975,26.7054221 28.4334349,26.7156164 C29.3569252,26.7156164 29.882133,27.2416438 29.882133,28.0043836 L29.882133,30.4460274 L29.2431302,30.4460274 L29.2431302,30.0273973 C29.0242936,30.3912329 28.5384765,30.5380822 28.1489474,30.5380822 C27.3480055,30.5380822 26.835928,30.060274 26.835928,29.3786301 C26.835928,28.6969863 27.3217452,28.2827397 28.1161219,28.2827397 L28.9652078,28.2827397 C29.1687258,28.2827397 29.2321884,28.1775342 29.2321884,28.0241096 L29.2431302,27.9978082 Z M29.2431302,29.1090411 L29.2431302,28.7123288 C29.1267027,28.7982199 28.9817174,28.8358964 28.8382825,28.8175342 L28.2714958,28.8175342 C27.7703601,28.8175342 27.5186981,29.0191781 27.5186981,29.3852055 C27.5186981,29.6942466 27.7528532,29.9923288 28.2561773,29.9923288 C28.7595014,29.9923288 29.2431302,29.740274 29.2431302,29.100274 L29.2431302,29.1090411 Z M32.545374,25.3150685 L33.1843767,25.3150685 L33.1843767,30.4460274 L32.545374,30.4460274 L32.545374,25.3150685 Z M36.3115512,27.9978082 C36.3115512,27.52 35.9548476,27.2920548 35.4537119,27.2920548 C35.0806434,27.3012633 34.7227171,27.4417087 34.442687,27.6887671 L34.1034903,27.2109589 C34.4951506,26.8816071 34.9927391,26.705622 35.5040443,26.7156164 C36.4275346,26.7156164 36.9527424,27.2438356 36.9527424,28.0043836 L36.9527424,30.4460274 L36.3137396,30.4460274 L36.3137396,30.0273973 C36.094903,30.3912329 35.6090859,30.5380822 35.2195568,30.5380822 C34.418615,30.5380822 33.9065374,30.060274 33.9065374,29.3786301 C33.9065374,28.6969863 34.3923546,28.2827397 35.1867313,28.2827397 L36.0380055,28.2827397 C36.2393352,28.2827397 36.3049861,28.1775342 36.3049861,28.0241096 L36.3115512,27.9978082 Z M34.8781717,25.2405479 C35.1355859,25.2463437 35.3428836,25.4539649 35.3486704,25.7117808 C35.342747,25.968107 35.1341646,26.1731282 34.8781717,26.1742466 C34.6241469,26.1718687 34.4188008,25.9662021 34.4164266,25.7117808 C34.4175432,25.4553885 34.622245,25.2464806 34.8781717,25.2405479 Z M36.3115512,29.1090411 L36.3115512,28.7123288 C36.1950256,28.7980132 36.0501239,28.835668 35.9067036,28.8175342 L35.3399169,28.8175342 C34.8365928,28.8175342 34.5871191,29.0191781 34.5871191,29.3852055 C34.5871191,29.6942466 34.8212742,29.9945205 35.3245983,29.9945205 C35.8279224,29.9945205 36.3115512,29.7424658 36.3115512,29.1024658 L36.3115512,29.1090411 Z M36.2152632,25.2339726 C36.4722988,25.2398099 36.6789436,25.4477443 36.6835734,25.7052055 C36.6776774,25.9606868 36.4704042,26.1653733 36.2152632,26.1676712 C35.9612383,26.1652933 35.7558922,25.9596268 35.753518,25.7052055 C35.7546346,25.4488131 35.9593364,25.2399052 36.2152632,25.2339726 Z M39.6269252,29.4487671 C39.6269252,29.1484932 39.3599446,29.010411 38.8741274,28.8416438 L38.6968698,28.7758904 C38.1060111,28.5567123 37.7077285,28.2893151 37.7077285,27.730411 C37.7077285,27.1715068 38.2504432,26.7178082 39.003241,26.7178082 C39.4576167,26.7121314 39.8993917,26.8673821 40.2506094,27.1561644 L39.9267313,27.6164384 C39.657604,27.4040549 39.3299594,27.279371 38.9879224,27.2591781 C38.6312188,27.2591781 38.3554848,27.430137 38.3554848,27.6975342 C38.3554848,27.9167123 38.5261773,28.070137 38.865374,28.1928767 L39.2614681,28.339726 C39.9748753,28.5983562 40.2724931,28.9315068 40.2724931,29.4663014 C40.2724931,29.9528767 39.858892,30.5446575 38.8960111,30.5446575 C38.4067632,30.5438874 37.9325471,30.3752548 37.5523546,30.0668493 L37.8762327,29.5890411 C38.1663612,29.831899 38.527197,29.9741518 38.9047645,29.9945205 C39.3424377,29.9945205 39.6247368,29.7512329 39.6247368,29.4509589 L39.6269252,29.4487671 Z M44.2421884,30.4482192 L43.6031856,30.4482192 L43.6031856,28.1117808 C43.6261297,27.8875422 43.5494423,27.6645452 43.3934922,27.5020195 C43.237542,27.3394938 43.0181141,27.2538901 42.7934903,27.2679452 C42.4302216,27.2679452 42.0319391,27.4717808 41.6599169,27.9013699 L41.6599169,30.4482192 L41.0209141,30.4482192 L41.0209141,26.8142466 L41.6445983,26.8142466 L41.6445983,27.309589 C41.9538383,26.9303997 42.4184709,26.7126413 42.9072853,26.7178082 C43.7651247,26.7178082 44.2443767,27.2613699 44.2443767,28.0723288 L44.2421884,30.4482192 Z M47.334349,27.9978082 C47.334349,27.52 46.9776454,27.2920548 46.4765097,27.2920548 C46.1034412,27.3012633 45.7455148,27.4417087 45.4654848,27.6887671 L45.1240997,27.2109589 C45.51576,26.8816071 46.0133485,26.705622 46.5246537,26.7156164 C47.448144,26.7156164 47.9733518,27.2438356 47.9733518,28.0043836 L47.9733518,30.4460274 L47.334349,30.4460274 L47.334349,30.0273973 C47.1155125,30.3912329 46.6296953,30.5380822 46.2401662,30.5380822 C45.4392244,30.5380822 44.9271468,30.060274 44.9271468,29.3786301 C44.9271468,28.6969863 45.412964,28.2827397 46.2073407,28.2827397 L47.058615,28.2827397 C47.2599446,28.2827397 47.3255956,28.1775342 47.3255956,28.0241096 L47.334349,27.9978082 Z M45.9009695,25.2405479 C46.1583837,25.2463437 46.3656814,25.4539649 46.3714681,25.7117808 C46.3644127,25.9676141 46.1564916,26.1719853 45.9009695,26.1742466 C45.6469447,26.1718687 45.4415986,25.9662021 45.4392244,25.7117808 C45.440341,25.4553885 45.6450428,25.2464806 45.9009695,25.2405479 Z M47.334349,29.1090411 L47.334349,28.7123288 C47.2179215,28.7982199 47.0729362,28.8358964 46.9295014,28.8175342 L46.3627147,28.8175342 C45.8615789,28.8175342 45.6099169,29.0191781 45.6099169,29.3852055 C45.6099169,29.6942466 45.844072,29.9945205 46.3473961,29.9945205 C46.8507202,29.9945205 47.334349,29.7424658 47.334349,29.1024658 L47.334349,29.1090411 Z M47.2380609,25.2339726 C47.4954751,25.2397684 47.7027728,25.4473896 47.7085596,25.7052055 C47.7015041,25.9610387 47.493583,26.16541 47.2380609,26.1676712 C46.9840361,26.1652933 46.77869,25.9596268 46.7763158,25.7052055 C46.7774324,25.4488131 46.9821342,25.2399052 47.2380609,25.2339726 Z" id="Combined-Shape" fill="#333333"></path>
            </g>
        </g>
    </g>
</svg>

<svg width="79" height="32" xmlns="http://www.w3.org/2000/svg"><g fill="none" fill-rule="evenodd"><path d="M30.15 10.91h-.01c-2.304 0-3.88 1.346-3.88 3.595v7.98h-2.004V14.01c0-1.986-1.11-3.097-2.948-3.097-2.394 0-3.823 1.547-3.823 3.448v8.124h-2.013V9.598h1.982v1.84c.994-1.577 2.394-2.19 4.086-2.19 2.132 0 3.736 1.17 4.348 2.688.76-1.55 2.132-2.689 4.495-2.689 3.033 0 4.697 1.841 4.697 4.675v8.561h-2.014v-8.475c0-1.986-1.107-3.097-2.917-3.097zM70.3 6.763c0-.263-.06-.614-.088-.877-.556-2.803-2.395-4.061-4.67-4.061-2.596 0-4.58 1.87-4.58 4.938 0 3.651 2.479 5.2 2.479 9.437 0 3.654-2.801 6.635-6.594 6.635-3.882 0-6.624-3.038-6.624-6.78 0-4 2.954-6.312 5.6-6.634.263-.03.584-.059.788-.059v1.694a5.266 5.266 0 0 0-.67.06c-1.956.32-3.707 2.163-3.707 4.938 0 2.774 1.81 5.113 4.64 5.113 2.744 0 4.494-2.133 4.494-4.938 0-3.858-2.48-5.348-2.48-9.469 0-3.798 2.949-6.603 6.625-6.603 3.151 0 6.012 1.96 6.653 5.466.07.376.099.758.087 1.14H70.3zm1.953 2.483l.007.004a6.52 6.52 0 0 1 4.664 1.925 6.541 6.541 0 0 1 1.9 4.68c0 3.916-2.538 6.984-6.74 6.984a7.585 7.585 0 0 1-2.16-.35v-1.725c.685.284 1.42.423 2.16.41 2.977 0 4.7-2.308 4.7-5.32 0-2.746-1.87-4.938-4.7-4.938-2.45 0-4.464 1.725-4.464 4.647v14.904H65.6V9.596h2.014v2.426c1.022-1.754 2.626-2.777 4.64-2.777zm-29.47 0c3.18 0 5.164 1.725 5.164 4.383v8.855h-1.985v-1.782c-.875 1.49-2.422 2.133-4.085 2.133-2.686 0-4.64-1.637-4.64-3.945 0-2.367 1.81-3.799 4.436-3.799h3.007c.904 0 1.254-.438 1.254-1.14v-.35c0-1.96-1.43-2.69-3.151-2.69-1.458 0-2.596.41-3.005 1.579h-2.013c.437-2.045 2.42-3.244 5.018-3.244zm3.15 8.563l-.001-1.696c-.32.381-.961.497-1.633.497h-2.335c-1.897 0-2.685.936-2.685 2.28 0 1.111.76 2.338 2.92 2.338 1.925 0 3.735-1.082 3.735-3.419zM6.784 9.245c3.7 0 6.625 2.836 6.625 6.81 0 3.973-2.941 6.779-6.624 6.779S.19 20.031.19 16.054c0-3.975 2.917-6.81 6.594-6.81zm0 11.923c2.765 0 4.575-2.19 4.575-5.113 0-2.924-1.823-5.144-4.574-5.144-2.75 0-4.552 2.222-4.552 5.144 0 2.921 1.81 5.113 4.552 5.113z" fill="#1DCA7A"/><path d="M.75 30.448v-5.133h.657v4.572h2.51v.561H.751zm5.96-2.45c0-.478-.357-.706-.858-.706-.373.01-.731.15-1.011.397l-.34-.478a2.11 2.11 0 0 1 1.401-.495c.924 0 1.449.528 1.449 1.288v2.442H6.71v-.419c-.22.364-.705.511-1.095.511-.8 0-1.313-.478-1.313-1.16 0-.681.486-1.095 1.28-1.095h.85c.2 0 .267-.105.267-.259l.01-.026zM5.276 25.24a.482.482 0 0 1 .47.47.475.475 0 0 1-.47.463.466.466 0 0 1 0-.933zm1.434 3.868v-.397a.562.562 0 0 1-.405.106h-.567c-.503 0-.753.201-.753.567 0 .31.234.61.738.61.503 0 .987-.253.987-.893v.007zm-.097-3.875a.482.482 0 0 1 .47.471.475.475 0 0 1-.47.463.466.466 0 0 1 0-.934zm2.33 5.214h-.638v-5.133h.639v1.992a1.575 1.575 0 0 1 1.247-.591c.858 0 1.337.543 1.337 1.354v2.376h-.64v-2.334a.768.768 0 0 0-.81-.844c-.366 0-.762.204-1.134.633v2.547zm3.986-1.624c.08.658.501 1.15 1.175 1.15.376.018.736-.152.963-.453h.761a1.919 1.919 0 0 1-1.733 1.021c-1.061 0-1.838-.802-1.838-1.913s.77-1.913 1.83-1.913c.938 0 1.82.609 1.82 2.084v.024H12.93zm.015-.528h2.22a1.077 1.077 0 0 0-1.077-1.013c-.633 0-1.029.421-1.143 1.013zm3.7-2.98h.64v5.13h-.64v-5.13zm1.618 0h.639v5.13h-.64v-5.13zm3.766 2.682c0-.478-.357-.706-.858-.706-.373.01-.73.15-1.01.397l-.34-.478a2.11 2.11 0 0 1 1.4-.495c.924 0 1.45.528 1.45 1.288v2.442h-.64v-.419c-.219.364-.704.511-1.094.511-.8 0-1.313-.478-1.313-1.16 0-.681.486-1.095 1.28-1.095h.85c.203 0 .266-.105.266-.259l.01-.026zm-1.433-2.757a.482.482 0 0 1 .47.47.473.473 0 0 1-.47.463.466.466 0 0 1 0-.933zm1.433 3.868v-.397a.564.564 0 0 1-.405.106h-.567c-.5 0-.752.201-.752.567 0 .31.234.61.737.61s.99-.253.99-.893l-.003.007zm-.096-3.875a.482.482 0 0 1 .47.471.475.475 0 0 1-.47.463.466.466 0 0 1 0-.934zM25.5 27.34h-.576v-.528h1.215v4.298c0 .682-.527.763-.915.763h-.461v-.53h.347c.22 0 .388-.04.388-.316l.002-3.687zm.267-2.1c.277.002.5.225.503.502a.5.5 0 1 1-.503-.501zm3.475 2.758c0-.478-.357-.706-.858-.706-.373.01-.73.15-1.01.397l-.342-.478a2.11 2.11 0 0 1 1.4-.495c.924 0 1.45.526 1.45 1.288v2.442h-.64v-.419c-.219.364-.705.511-1.094.511-.801 0-1.313-.478-1.313-1.16 0-.681.486-1.095 1.28-1.095h.85c.203 0 .266-.105.266-.259l.011-.026zm0 1.111v-.397a.562.562 0 0 1-.405.106h-.567c-.5 0-.752.201-.752.567 0 .31.234.607.737.607.504 0 .987-.252.987-.892v.009zm3.302-3.794h.64v5.131h-.64v-5.13zm3.767 2.683c0-.478-.357-.706-.858-.706-.373.01-.731.15-1.011.397l-.34-.478a2.11 2.11 0 0 1 1.401-.495c.924 0 1.449.528 1.449 1.288v2.442h-.64v-.419c-.218.364-.704.511-1.093.511-.801 0-1.313-.478-1.313-1.16 0-.681.485-1.095 1.28-1.095h.851c.201 0 .267-.105.267-.259l.007-.026zm-1.434-2.757a.482.482 0 0 1 .47.47.473.473 0 0 1-.47.463.466.466 0 0 1 0-.933zm1.434 3.868v-.397a.564.564 0 0 1-.405.106h-.567c-.503 0-.753.201-.753.567 0 .31.234.61.738.61.503 0 .987-.253.987-.893v.007zm-.097-3.875a.48.48 0 0 1 .469.471.473.473 0 0 1-.469.463.466.466 0 0 1 0-.934zm3.412 4.215c0-.3-.267-.439-.753-.607l-.177-.066c-.591-.22-.99-.487-.99-1.046 0-.558.543-1.012 1.296-1.012a1.93 1.93 0 0 1 1.248.438l-.324.46a1.675 1.675 0 0 0-.94-.357c-.356 0-.632.171-.632.439 0 .219.171.372.51.495l.396.147c.714.258 1.011.592 1.011 1.126 0 .487-.413 1.079-1.376 1.079a2.143 2.143 0 0 1-1.344-.478l.324-.478c.29.243.651.385 1.029.406.437 0 .72-.244.72-.544l.002-.002zm4.615 1h-.639v-2.337a.768.768 0 0 0-.81-.844c-.363 0-.761.204-1.133.633v2.547h-.64v-3.634h.625v.496c.309-.38.773-.597 1.262-.592.858 0 1.337.543 1.337 1.354l-.002 2.376zm3.092-2.451c0-.478-.356-.706-.857-.706-.374.01-.731.15-1.012.397l-.34-.478c.39-.33.888-.505 1.4-.495.923 0 1.448.528 1.448 1.288v2.442h-.639v-.419c-.218.364-.704.511-1.094.511-.8 0-1.313-.478-1.313-1.16 0-.681.486-1.095 1.28-1.095h.852c.2 0 .267-.105.267-.259l.008-.026zM45.9 25.241a.482.482 0 0 1 .47.47.475.475 0 0 1-.47.463.466.466 0 0 1 0-.933zm1.433 3.868v-.397a.562.562 0 0 1-.404.106h-.567c-.501 0-.753.201-.753.567 0 .31.234.61.737.61.504 0 .987-.253.987-.893v.007zm-.096-3.875a.482.482 0 0 1 .47.471.475.475 0 0 1-.47.463.466.466 0 0 1 0-.934z" fill="#333"/></g></svg>
